X:1
T:Title
L:1/8
Q:1/4=80
M:2/4
K:A
V:1 treble nm="Church Organ, Staff"
V:1
 c2 e>d | c .A3 | G>F EA | B2 z B | c>c BA | G2 GA | B>B c^d | e2 z E | dd/c/- c/Bc/- | %9
w: By~Rev.~J.~S.~B.~Hodges,~D.~D. * *|||||||||
 c z z z/ c/- | cB/A/- A/GA/- | A z z/ EF/- | FG/A/- A/Bc/- | c<e z/ dc/- | cc/d/- d/BA/- | %15
w: ||||||
 A2 z z/ c/- | c>e- ed/c/- | c<A z z/ G/- | GF/E/- E/AB/- | B z z/ Bc/- | cc/c/- c/ce/- | %21
w: ||||||
 ed/c/- c/AF/- | F/dc/- c/BA/- | A4 |] %24
w: |||

